X:1
T:Sancto rum Agmina
T:Sanctorum Agmina
T:Anc. Mél. All. P. J. Van Damme 
C:Anc. Mél. All.
%%score ( 1 2 ) { ( 3 4 ) | ( 5 6 ) }
L:1/8
M:4/4
K:C
V:1 treble nm="Voice" snm="Vo."
V:2 treble 
V:3 treble nm="Organ" snm="Org."
V:4 treble 
V:5 bass 
V:6 bass 
V:1
 c2 | c2 c2 e2 d2 | c4 z2 e2 | d2 c2 B2 c2 | d4 z2 c2 | d2 e2 A4 | G4 z2 G2 | A2 B2 c2 d2 | %8
w: San-|cto- rum ag- mi-|naa ex-|ce- dens Do- mi-|na, Ma-|ri- a *|* Dul-|ce- do cor- di-|
 e4 z2 G2 | A2 B2 c2 A2 | G4 z2 c2 | d2 e2 d4 | c4 z2 z2 | z8 | z8 | z8 | z8 | z8 | z8 | z8 | z6 :| %21
w: um, spes|sup- pli- can- ti-|um, Ma-|ri- a sal-|ve!|||||||||
V:2
 E2 | G2 A2 G2 F2 | E4 z2 G2 | B2 A2 G2 A2 | B4 z2 c2 | B2 A2 (G2 ^F2) | G4 x2 G2 | G2 F2 E2 D2 | %8
w: |||||* * sal- *|ve! *||
 C4 x2 G2 | E2 D2 E2 ^F2 | G4 z2 (GA) | B2 c2 (c2 B2) | c4 x4 | x8 | x8 | x8 | x8 | x8 | x8 | x8 | %20
w: ||||||||||||
 x6 :| %21
w: |
V:3
 c2 | c2 c2 e2 d2 | c4- c2 e2 | d2 c2 B2 c2 | d6 c2 | d2 e2 A4 | G6 G2 | A2 B2 c2 d2 | e6 G2 | %9
 A2 B2 c2 A2 | G6 c2 | d2 e2 d4 | c6 z2 |"^INTERLUDE ad libitum" z4 z2 F2 | G2 A2 G4 | F4 E2 D2- | %16
 D2 ^C2 D2 A2 | B2 c2 B4 | A2 c2 d2 e2 | d8 | c6 :| %21
V:4
 E2 | G2 A2 G2 F2 | E4 A2 G2- | G2 E2 G2 A2 | B2 A2 G4- | G6 ^F2 | D4 x2 G2- | G2 F2 E2 G2- | %8
 G6 G2 | E2 D2 C2 D2 | B,2 C2 D2 G2- | G4 A2 GF | E6 x2 | x8 | x8 | x8 | x6 E2- | E4 D4 | C2 G6 | %19
 A2 D2 G2 F2 | E6 :| %21
V:5
 G,2 | C6 B,2 | C8 | B,2 C2 D4- | D4 B,2 C2 | B,2 A,2 C4- | C2 A,2 B,2 E,2 | F,2 D,2 C,2 B,,2 | %8
 z2 G,2 C2 z2 | z2 G,4 ^F,2 | G,2 A,2 B,2 C2 | B,2 C4 B,2 | G,6 C2 | D2 E2 D4 | C4 _B,2 C2 | %15
 A,4 G,2 A,2 | G,4 F,2 A,2 | ^G,2 A,4 G,2 | A,2 G,2 B,2 C2- | C4 B,4 | G,6 :| %21
V:6
 C,2 | E,2 F,2 G,4 | A,2 G,2 F,2 E,2 | G,2 A,2 B,2 A,2 | G,4 F,2 E,2 | D,2 C,2 D,4 | G,6 x2 | x8 | %8
 C,6 E,2 | C,2 B,,2 A,,2 D,2 | G,4 F,2 E,2 | D,2 C,2 F,2 G,2 | C,6 x2 | x8 | x8 | z2 D,2 E,2 F,2 | %16
 E,4 D,2 C,2 | B,,2 A,,2 E,4 | F,2 E,2 D,2 C,2 | F,4 G,4 | C,6 :| %21

